assets/img/arrow.svg

<svg width="80" height="61" viewBox="0 0 80 61" fill="none" xmlns="http://www.w3.org/2000/svg">
<path d="M72.3638 34.5526L14.5246 34.5526L36.0522 55.8347L31.1242 60.9629L5.18737 36.0911L-1.31134e-06 30.9629L31.1242 0.962889L36.0522 5.83468L14.5246 27.3731L79.6262 27.3731L72.3638 34.5526Z" fill="#454545"/>
</svg>

<svg width="80" height="61" fill="none" xmlns="http://www.w3.org/2000/svg"><path d="M72.364 34.553h-57.84l21.528 21.282-4.928 5.128L5.187 36.09 0 30.963l31.124-30 4.928 4.872-21.527 21.538h65.101l-7.262 7.18Z" fill="#454545"/></svg>
